X: 37
%
U:~=!turn!
T: The Black Hair'd Lad
C:Pipe tune.
O:Scotland
B:Keith Norman MacDonald : "The Skye collection of the best reels & strathspeys extant" : 1887
Z:Ralph Palmer
R:Reel
M:C
L:1/8
K:A dorian
Aeaf gefd | g2 dB GBdB | Aeaf gefd | g2 dB e2 Az :: AAeA fAeA |
g2 dB GBdB | [1 AAeA fAeA | g2 dB e2 Az :| [2 Aeag gefd | g2 dB e2 Az :|


